X:5953
T:Gan Ainm
R:strathspey
S:Tommy Peoples & Dermot Byrnes
H:
N:Last two bars of second half unclear
D:Concert, Galway 
Z:Adrian Scahill
M:4/4
L:1/8
K:A
A2cA ec e<a|ABcA BEGB|A2cA ecea|(3gfe (3dcB (3AcB (3AFE|\
A2cA ec e<a|ABcA BEGB|A2cA ecea|fagb a3e||\
aAc'A e'Ac'A|aAc'A bab<c'|aAc'A e'Ac'A|(3ded (3cdc BcAe|\
aAc'A e'Ac'A|aAc'A bab<c'|(3Ace (3ecA (3Adf (3fdA|gebg af (3ecB||
